icons/relative-to-scene-elevation-32.svg

<svg id="icons" xmlns="http://www.w3.org/2000/svg" viewBox="0 0 32 32"><defs><style>.cls-1{fill:none;}</style></defs><rect class="cls-1" width="32" height="32"/><path d="M12.50417,8.9043A2.4043,2.4043,0,1,0,10.0955,6.5,2.39209,2.39209,0,0,0,12.50417,8.9043ZM12.49983,5a1.5,1.5,0,1,1-1.50269,1.5A1.50365,1.50365,0,0,1,12.49983,5ZM13,15H12V13h1Zm0-3H12V10h1Zm-1,4h1v2H12ZM28,29V15H27V13H25V11H24v2H22V11H17v2H16v6H10V29H3V26H6V25H3V22H6V21H3V18H6V17H3V14H6V13H3V10H6V9H3V6H6V5H3V2H2V30H30V29ZM26,14v1H23V14Zm-8-2h3v1H18ZM11,29V20h5v9Zm6,0V14h5V29Zm6,0V16h4V29Z"/></svg>

<svg xmlns="http://www.w3.org/2000/svg" viewBox="0 0 32 32"><path fill="none" d="M0 0h32v32H0z"/><path d="M12.504 8.904A2.404 2.404 0 1 0 10.095 6.5a2.392 2.392 0 0 0 2.41 2.404zM12.5 5a1.5 1.5 0 1 1-1.503 1.5A1.504 1.504 0 0 1 12.5 5zm.5 10h-1v-2h1zm0-3h-1v-2h1zm-1 4h1v2h-1zm16 13V15h-1v-2h-2v-2h-1v2h-2v-2h-5v2h-1v6h-6v10H3v-3h3v-1H3v-3h3v-1H3v-3h3v-1H3v-3h3v-1H3v-3h3V9H3V6h3V5H3V2H2v28h28v-1zm-2-15v1h-3v-1zm-8-2h3v1h-3zm-7 17v-9h5v9zm6 0V14h5v15zm6 0V16h4v13z"/></svg>
